outputs/icons/enterprise/rules_round.svg

<svg xmlns="http://www.w3.org/2000/svg" width="1200" height="1200" fill="none"><path fill="#000" d="M755.42 631.25c16.81.005 31.3 12.945 32.08 29.735a31.3 31.3 0 0 1-1.905 12.405 31.3 31.3 0 0 1-6.69 10.69c-2.92 3.065-6.46 5.465-10.35 7.13-3.895 1.665-8.07 2.545-12.305 2.54h-500c-8.288 0-16.258 3.27-22.119 9.13S225 716.71 225 725v187.5c0 8.29 3.27 16.26 9.131 22.12s13.831 9.13 22.119 9.13h99.121l-40.43-40.43c-2.898-2.9-5.169-6.37-6.738-10.155a31.3 31.3 0 0 1-2.393-11.965 31.4 31.4 0 0 1 2.393-11.96 31.3 31.3 0 0 1 6.738-10.11c5.861-5.855 13.835-9.13 22.119-9.13a31.22 31.22 0 0 1 22.071 9.13L475 974.95l-115.869 115.87a31.2 31.2 0 0 1-10.156 6.785 31.1 31.1 0 0 1-11.963 2.395 31.1 31.1 0 0 1-11.963-2.395 31 31 0 0 1-10.108-6.785c-2.899-2.9-5.216-6.32-6.786-10.105a31.3 31.3 0 0 1-2.393-11.965c0-4.105.822-8.17 2.393-11.965a31.4 31.4 0 0 1 6.786-10.155l40.381-40.38H256.25c-24.864 0-48.727-9.86-66.308-27.44A93.78 93.78 0 0 1 162.5 912.5V725a93.78 93.78 0 0 1 27.442-66.31c17.581-17.58 41.444-27.44 66.308-27.44zM662.5 850c33.15 0 64.935 13.18 88.38 36.62A125 125 0 0 1 787.5 975c0 33.15-13.18 64.935-36.62 88.38A125 125 0 0 1 662.5 1100c-33.15 0-64.935-13.18-88.38-36.62A125 125 0 0 1 537.5 975c0-33.15 13.18-64.935 36.62-88.38A125 125 0 0 1 662.5 850M975 537.5c33.15 0 64.935 13.18 88.38 36.62A125 125 0 0 1 1100 662.5c0 33.15-13.18 64.935-36.62 88.38A125 125 0 0 1 975 787.5c-33.15 0-64.935-13.18-88.38-36.62A125 125 0 0 1 850 662.5c0-33.15 13.18-64.935 36.62-88.38A125 125 0 0 1 975 537.5M912.5 193.75a93.76 93.76 0 0 1 66.26 27.441c17.58 17.582 27.49 41.445 27.49 66.309v67.871l40.38-40.43c5.86-5.853 13.84-9.131 22.12-9.131a31.27 31.27 0 0 1 22.07 9.131c5.855 5.861 9.13 13.835 9.13 22.119 0 8.279-3.28 16.214-9.13 22.071L975 475 859.08 359.082a31.27 31.27 0 0 1-9.13-22.07 31.27 31.27 0 0 1 9.13-22.071 31.4 31.4 0 0 1 10.16-6.786 31.2 31.2 0 0 1 11.96-2.393c4.105 0 8.17.821 11.965 2.393a31.4 31.4 0 0 1 10.155 6.786l40.38 40.43V287.5c0-8.288-3.32-16.259-9.18-22.119a31.25 31.25 0 0 0-22.07-9.131H444.58c-16.813 0-31.293-12.925-32.08-29.737-.204-4.228.425-8.484 1.905-12.45a31.3 31.3 0 0 1 6.689-10.645c2.918-3.057 6.416-5.516 10.302-7.178 3.894-1.663 8.121-2.495 12.354-2.49zM225 100a125 125 0 0 1 88.379 36.621A125 125 0 0 1 350 225a125 125 0 0 1-36.621 88.379A125 125 0 0 1 225 350a125 125 0 0 1-88.379-36.621A125 125 0 0 1 100 225a125 125 0 0 1 36.621-88.379A125 125 0 0 1 225 100"/></svg>

<svg width="1200" height="1200" viewBox="0 0 1200 1200" fill="none" xmlns="http://www.w3.org/2000/svg"><path d="M755.42 631.25C772.23 631.255 786.72 644.195 787.5 660.985C787.705 665.205 787.065 669.43 785.595 673.39C784.12 677.36 781.83 681.015 778.905 684.08C775.985 687.145 772.445 689.545 768.555 691.21C764.66 692.875 760.485 693.755 756.25 693.75H256.25C247.962 693.75 239.992 697.02 234.131 702.88C228.27 708.74 225 716.71 225 725V912.5C225 920.79 228.27 928.76 234.131 934.62C239.992 940.48 247.962 943.75 256.25 943.75H355.371L314.941 903.32C312.043 900.42 309.772 896.95 308.203 893.165C306.635 889.375 305.81 885.305 305.81 881.2C305.813 877.105 306.635 873.025 308.203 869.24C309.771 865.465 312.052 862.025 314.941 859.13C320.802 853.275 328.776 850 337.06 850C345.341 850.005 353.273 853.275 359.131 859.13L475 974.95L359.131 1090.82C356.233 1093.73 352.769 1096.035 348.975 1097.605C345.18 1099.18 341.119 1100.005 337.012 1100C332.908 1100.005 328.84 1099.18 325.049 1097.605C321.261 1096.035 317.835 1093.725 314.941 1090.82C312.042 1087.92 309.725 1084.5 308.155 1080.715C306.584 1076.925 305.763 1072.85 305.762 1068.75C305.762 1064.645 306.584 1060.58 308.155 1056.785C309.725 1052.995 312.039 1049.535 314.941 1046.63L355.322 1006.25H256.25C231.386 1006.25 207.523 996.39 189.942 978.81C172.36 961.225 162.5 937.365 162.5 912.5V725C162.5 700.135 172.36 676.275 189.942 658.69C207.523 641.11 231.386 631.25 256.25 631.25H755.42Z" fill="black"/><path d="M662.5 850C695.65 850 727.435 863.18 750.88 886.62C774.32 910.065 787.5 941.85 787.5 975C787.5 1008.15 774.32 1039.935 750.88 1063.38C727.435 1086.82 695.65 1100 662.5 1100C629.35 1100 597.565 1086.82 574.12 1063.38C550.68 1039.935 537.5 1008.15 537.5 975C537.5 941.85 550.68 910.065 574.12 886.62C597.565 863.18 629.35 850 662.5 850Z" fill="black"/><path d="M975 537.5C1008.15 537.5 1039.935 550.68 1063.38 574.12C1086.82 597.565 1100 629.35 1100 662.5C1100 695.65 1086.82 727.435 1063.38 750.88C1039.935 774.32 1008.15 787.5 975 787.5C941.85 787.5 910.065 774.32 886.62 750.88C863.18 727.435 850 695.65 850 662.5C850 629.35 863.18 597.565 886.62 574.12C910.065 550.68 941.85 537.5 975 537.5Z" fill="black"/><path d="M912.5 193.75C937.35 193.755 961.185 203.624 978.76 221.191C996.34 238.773 1006.25 262.636 1006.25 287.5V355.371L1046.63 314.941C1052.49 309.088 1060.47 305.81 1068.75 305.81C1077.025 305.816 1084.965 309.096 1090.82 314.941C1096.675 320.802 1099.95 328.776 1099.95 337.06C1099.95 345.339 1096.67 353.274 1090.82 359.131L975 475L859.08 359.082C853.24 353.224 849.95 345.286 849.95 337.012C849.95 328.736 853.24 320.799 859.08 314.941C861.985 312.04 865.45 309.725 869.24 308.155C873.03 306.583 877.095 305.762 881.2 305.762C885.305 305.762 889.37 306.583 893.165 308.155C896.955 309.725 900.42 312.04 903.32 314.941L943.7 355.371V287.5C943.7 279.212 940.38 271.241 934.52 265.381C928.665 259.535 920.725 256.252 912.45 256.25H444.58C427.767 256.25 413.287 243.325 412.5 226.513C412.296 222.285 412.925 218.029 414.405 214.063C415.883 210.101 418.175 206.477 421.094 203.418C424.012 200.361 427.51 197.902 431.396 196.24C435.29 194.577 439.517 193.745 443.75 193.75H912.5Z" fill="black"/><path d="M225 100C258.152 100 289.937 113.179 313.379 136.621C336.821 160.063 350 191.848 350 225C350 258.152 336.821 289.937 313.379 313.379C289.937 336.821 258.152 350 225 350C191.848 350 160.063 336.821 136.621 313.379C113.179 289.937 100 258.152 100 225C100 191.848 113.179 160.063 136.621 136.621C160.063 113.179 191.848 100 225 100Z" fill="black"/></svg>
